X:1
T:[ID 2-16]
T:[ID 2-16]
T:Bezeichnung standardisiert: Menuett Men:
T:Urheber unbekannt Datum in der hier transkribierten schriftlichen Quelle: 1776 - 1791
C:Urheber unbekannt
C:Datum in der hier transkribierten schriftlichen Quelle: 1776 - 1791
L:1/8
M:3/4
K:D
V:1 treble 
V:1
 de f2 g2 | a3 g f2 | g2 bg e2 | fgaf d2 | de f2 g2 | a3 g f2 | g2 bgec | d6 :: d4 (3AB_c | %9
 B2 dB G2 | e4 (3B^cd | c2 ec A2 | de f2 g2 | a3 g f2 | g2 bgec | d6 :| %16

